mimetypes/video-x-generic.svg

<svg xmlns="http://www.w3.org/2000/svg" width="48" height="48">
    <defs>
        <filter id="a" color-interpolation-filters="sRGB">
            <feFlood flood-opacity=".298" result="flood"/>
            <feComposite in="flood" in2="SourceGraphic" operator="in" result="composite1"/>
            <feGaussianBlur in="composite1" result="blur" stdDeviation=".8"/>
            <feOffset dy=".4" result="offset"/>
            <feComposite in="SourceGraphic" in2="offset" result="composite2"/>
        </filter>
    </defs>
    <g fill-rule="evenodd">
        <path d="M4 8c-1.108 0-2 .892-2 2v28c0 1.108.892 2 2 2h40c1.108 0 2-.892 2-2V10c0-1.108-.892-2-2-2H4zm1 2h2c.554 0 1 .446 1 1v2c0 .554-.446 1-1 1H5c-.554 0-1-.446-1-1v-2c0-.554.446-1 1-1zm36 0h2c.554 0 1 .446 1 1v2c0 .554-.446 1-1 1h-2c-.554 0-1-.446-1-1v-2c0-.554.446-1 1-1zM5 16h2c.554 0 1 .446 1 1v2c0 .554-.446 1-1 1H5c-.554 0-1-.446-1-1v-2c0-.554.446-1 1-1zm36 0h2c.554 0 1 .446 1 1v2c0 .554-.446 1-1 1h-2c-.554 0-1-.446-1-1v-2c0-.554.446-1 1-1zM5 22h2c.554 0 1 .446 1 1v2c0 .554-.446 1-1 1H5c-.554 0-1-.446-1-1v-2c0-.554.446-1 1-1zm36 0h2c.554 0 1 .446 1 1v2c0 .554-.446 1-1 1h-2c-.554 0-1-.446-1-1v-2c0-.554.446-1 1-1zM5 28h2c.554 0 1 .446 1 1v2c0 .554-.446 1-1 1H5c-.554 0-1-.446-1-1v-2c0-.554.446-1 1-1zm36 0h2c.554 0 1 .446 1 1v2c0 .554-.446 1-1 1h-2c-.554 0-1-.446-1-1v-2c0-.554.446-1 1-1zM5 34h2c.554 0 1 .446 1 1v2c0 .554-.446 1-1 1H5c-.554 0-1-.446-1-1v-2c0-.554.446-1 1-1zm36 0h2c.554 0 1 .446 1 1v2c0 .554-.446 1-1 1h-2c-.554 0-1-.446-1-1v-2c0-.554.446-1 1-1z" fill="#3f51b5" filter="url(#a)"/>
        <path d="M4 8c-1.108 0-2 .892-2 2v28c0 1.108.892 2 2 2h6V8H4zm1 2h2c.554 0 1 .446 1 1v2c0 .554-.446 1-1 1H5c-.554 0-1-.446-1-1v-2c0-.554.446-1 1-1zm0 6h2c.554 0 1 .446 1 1v2c0 .554-.446 1-1 1H5c-.554 0-1-.446-1-1v-2c0-.554.446-1 1-1zm0 6h2c.554 0 1 .446 1 1v2c0 .554-.446 1-1 1H5c-.554 0-1-.446-1-1v-2c0-.554.446-1 1-1zm0 6h2c.554 0 1 .446 1 1v2c0 .554-.446 1-1 1H5c-.554 0-1-.446-1-1v-2c0-.554.446-1 1-1zm0 6h2c.554 0 1 .446 1 1v2c0 .554-.446 1-1 1H5c-.554 0-1-.446-1-1v-2c0-.554.446-1 1-1zM44 40c1.108 0 2-.892 2-2V10c0-1.108-.892-2-2-2h-6v32zm-1-2h-2c-.554 0-1-.446-1-1v-2c0-.554.446-1 1-1h2c.554 0 1 .446 1 1v2c0 .554-.446 1-1 1zm0-6h-2c-.554 0-1-.446-1-1v-2c0-.554.446-1 1-1h2c.554 0 1 .446 1 1v2c0 .554-.446 1-1 1zm0-6h-2c-.554 0-1-.446-1-1v-2c0-.554.446-1 1-1h2c.554 0 1 .446 1 1v2c0 .554-.446 1-1 1zm0-6h-2c-.554 0-1-.446-1-1v-2c0-.554.446-1 1-1h2c.554 0 1 .446 1 1v2c0 .554-.446 1-1 1zm0-6h-2c-.554 0-1-.446-1-1v-2c0-.554.446-1 1-1h2c.554 0 1 .446 1 1v2c0 .554-.446 1-1 1z" fill="#1a237e"/>
        <path d="M19 17v14l12-7z" fill="#e8eaf6" stroke="#e8eaf6" stroke-width="2" stroke-linecap="round" stroke-linejoin="round"/>
    </g>
</svg>

<?xml version="1.0" encoding="UTF-8" standalone="no"?>
<!-- Created with Inkscape (http://www.inkscape.org/) -->

<svg
   xmlns:dc="http://purl.org/dc/elements/1.1/"
   xmlns:cc="http://creativecommons.org/ns#"
   xmlns:rdf="http://www.w3.org/1999/02/22-rdf-syntax-ns#"
   xmlns:svg="http://www.w3.org/2000/svg"
   xmlns="http://www.w3.org/2000/svg"
   xmlns:sodipodi="http://sodipodi.sourceforge.net/DTD/sodipodi-0.dtd"
   xmlns:inkscape="http://www.inkscape.org/namespaces/inkscape"
   width="48"
   height="48"
   id="svg4152"
   version="1.1"
   inkscape:version="0.92.1 r"
   viewBox="0 0 48 48"
   sodipodi:docname="video-x-generic.svg">
  <defs
     id="defs4154">
    <filter
       style="color-interpolation-filters:sRGB;"
       inkscape:label="Drop Shadow"
       id="filter4144"
       y="-0.20000000000000001"
       height="1.3999999999999999">
      <feFlood
         flood-opacity="0.298039"
         flood-color="rgb(0,0,0)"
         result="flood"
         id="feFlood4146" />
      <feComposite
         in="flood"
         in2="SourceGraphic"
         operator="in"
         result="composite1"
         id="feComposite4148" />
      <feGaussianBlur
         in="composite1"
         stdDeviation="0.8"
         result="blur"
         id="feGaussianBlur4150" />
      <feOffset
         dx="0"
         dy="0.4"
         result="offset"
         id="feOffset4152" />
      <feComposite
         in="SourceGraphic"
         in2="offset"
         operator="over"
         result="composite2"
         id="feComposite4154" />
    </filter>
    <filter
       style="color-interpolation-filters:sRGB;"
       inkscape:label="Drop Shadow"
       id="filter4156"
       y="-0.29999999999999999"
       height="1.6000000000000001"
       x="-0.20000000000000001"
       width="1.3999999999999999">
      <feFlood
         flood-opacity="0.298039"
         flood-color="rgb(0,0,0)"
         result="flood"
         id="feFlood4158" />
      <feComposite
         in="flood"
         in2="SourceGraphic"
         operator="in"
         result="composite1"
         id="feComposite4160" />
      <feGaussianBlur
         in="composite1"
         stdDeviation="0.8"
         result="blur"
         id="feGaussianBlur4162" />
      <feOffset
         dx="0"
         dy="0.4"
         result="offset"
         id="feOffset4164" />
      <feComposite
         in="SourceGraphic"
         in2="offset"
         operator="over"
         result="composite2"
         id="feComposite4166" />
    </filter>
    <clipPath
       clipPathUnits="userSpaceOnUse"
       id="clipPath4195">
      <rect
         style="color:#000000;clip-rule:nonzero;display:inline;overflow:visible;visibility:visible;opacity:1;isolation:auto;mix-blend-mode:normal;color-interpolation:sRGB;color-interpolation-filters:linearRGB;solid-color:#000000;solid-opacity:1;fill:#03a9f4;fill-opacity:1;fill-rule:evenodd;stroke:none;stroke-width:0.1;stroke-linecap:round;stroke-linejoin:round;stroke-miterlimit:4;stroke-dasharray:none;stroke-dashoffset:0;stroke-opacity:0.25098039;color-rendering:auto;image-rendering:auto;shape-rendering:auto;text-rendering:auto;enable-background:accumulate"
         id="rect4197"
         width="44"
         height="32"
         x="2"
         y="-24"
         ry="2"
         rx="2" />
    </clipPath>
    <clipPath
       clipPathUnits="userSpaceOnUse"
       id="clipPath4214">
      <rect
         style="color:#000000;clip-rule:nonzero;display:inline;overflow:visible;visibility:visible;opacity:1;isolation:auto;mix-blend-mode:normal;color-interpolation:sRGB;color-interpolation-filters:linearRGB;solid-color:#000000;solid-opacity:1;fill:#03a9f4;fill-opacity:1;fill-rule:evenodd;stroke:none;stroke-width:0.1;stroke-linecap:round;stroke-linejoin:round;stroke-miterlimit:4;stroke-dasharray:none;stroke-dashoffset:0;stroke-opacity:0.25098039;color-rendering:auto;image-rendering:auto;shape-rendering:auto;text-rendering:auto;enable-background:accumulate"
         id="rect4216"
         width="44"
         height="32"
         x="2"
         y="-24"
         ry="2"
         rx="2" />
    </clipPath>
    <filter
       style="color-interpolation-filters:sRGB;"
       inkscape:label="Drop Shadow"
       id="filter4218">
      <feFlood
         flood-opacity="0.298039"
         flood-color="rgb(0,0,0)"
         result="flood"
         id="feFlood4220" />
      <feComposite
         in="flood"
         in2="SourceGraphic"
         operator="in"
         result="composite1"
         id="feComposite4222" />
      <feGaussianBlur
         in="composite1"
         stdDeviation="0.8"
         result="blur"
         id="feGaussianBlur4224" />
      <feOffset
         dx="0"
         dy="0.4"
         result="offset"
         id="feOffset4226" />
      <feComposite
         in="SourceGraphic"
         in2="offset"
         operator="over"
         result="composite2"
         id="feComposite4228" />
    </filter>
    <filter
       style="color-interpolation-filters:sRGB;"
       inkscape:label="Drop Shadow"
       id="filter4230"
       y="-0.20000000000000001"
       height="1.3999999999999999">
      <feFlood
         flood-opacity="0.298039"
         flood-color="rgb(0,0,0)"
         result="flood"
         id="feFlood4232" />
      <feComposite
         in="flood"
         in2="SourceGraphic"
         operator="in"
         result="composite1"
         id="feComposite4234" />
      <feGaussianBlur
         in="composite1"
         stdDeviation="0.8"
         result="blur"
         id="feGaussianBlur4236" />
      <feOffset
         dx="0"
         dy="0.4"
         result="offset"
         id="feOffset4238" />
      <feComposite
         in="SourceGraphic"
         in2="offset"
         operator="over"
         result="composite2"
         id="feComposite4240" />
    </filter>
    <filter
       style="color-interpolation-filters:sRGB;"
       inkscape:label="Drop Shadow"
       id="filter4633">
      <feFlood
         flood-opacity="0.298039"
         flood-color="rgb(0,0,0)"
         result="flood"
         id="feFlood4623" />
      <feComposite
         in="flood"
         in2="SourceGraphic"
         operator="in"
         result="composite1"
         id="feComposite4625" />
      <feGaussianBlur
         in="composite1"
         stdDeviation="0.8"
         result="blur"
         id="feGaussianBlur4627" />
      <feOffset
         dx="0"
         dy="0.4"
         result="offset"
         id="feOffset4629" />
      <feComposite
         in="SourceGraphic"
         in2="offset"
         operator="over"
         result="composite2"
         id="feComposite4631" />
    </filter>
  </defs>
  <sodipodi:namedview
     id="base"
     pagecolor="#ededed"
     bordercolor="#000000"
     borderopacity="0.49803922"
     inkscape:pageopacity="0"
     inkscape:pageshadow="2"
     inkscape:zoom="15.696216"
     inkscape:cx="21.527417"
     inkscape:cy="23.628834"
     inkscape:current-layer="layer1"
     showgrid="false"
     inkscape:grid-bbox="true"
     inkscape:document-units="px"
     inkscape:showpageshadow="false"
     borderlayer="true"
     inkscape:window-width="1920"
     inkscape:window-height="1012"
     inkscape:window-x="0"
     inkscape:window-y="32"
     inkscape:window-maximized="1">
    <inkscape:grid
       type="xygrid"
       id="grid4700"
       color="#000000"
       opacity="0.0627451"
       empcolor="#000000"
       empopacity="0.1254902"
       empspacing="4"
       spacingx="2"
       spacingy="2" />
  </sodipodi:namedview>
  <metadata
     id="metadata4157">
    <rdf:RDF>
      <cc:Work
         rdf:about="">
        <dc:format>image/svg+xml</dc:format>
        <dc:type
           rdf:resource="http://purl.org/dc/dcmitype/StillImage" />
        <dc:title />
      </cc:Work>
    </rdf:RDF>
  </metadata>
  <g
     id="layer1"
     inkscape:label="Layer 1"
     inkscape:groupmode="layer"
     transform="translate(0,32)">
    <path
       style="color:#000000;clip-rule:nonzero;display:inline;overflow:visible;visibility:visible;opacity:1;isolation:auto;mix-blend-mode:normal;color-interpolation:sRGB;color-interpolation-filters:linearRGB;solid-color:#000000;solid-opacity:1;fill:#3f51b5;fill-opacity:1;fill-rule:evenodd;stroke:none;stroke-width:0.1;stroke-linecap:round;stroke-linejoin:round;stroke-miterlimit:4;stroke-dasharray:none;stroke-dashoffset:0;stroke-opacity:0.25098039;color-rendering:auto;image-rendering:auto;shape-rendering:auto;text-rendering:auto;enable-background:accumulate;filter:url(#filter4633)"
       d="M 4 8 C 2.892 8 2 8.892 2 10 L 2 38 C 2 39.108 2.892 40 4 40 L 44 40 C 45.108 40 46 39.108 46 38 L 46 10 C 46 8.892 45.108 8 44 8 L 4 8 z M 5 10 L 7 10 C 7.554 10 8 10.446 8 11 L 8 13 C 8 13.554 7.554 14 7 14 L 5 14 C 4.446 14 4 13.554 4 13 L 4 11 C 4 10.446 4.446 10 5 10 z M 41 10 L 43 10 C 43.554 10 44 10.446 44 11 L 44 13 C 44 13.554 43.554 14 43 14 L 41 14 C 40.446 14 40 13.554 40 13 L 40 11 C 40 10.446 40.446 10 41 10 z M 5 16 L 7 16 C 7.554 16 8 16.446 8 17 L 8 19 C 8 19.554 7.554 20 7 20 L 5 20 C 4.446 20 4 19.554 4 19 L 4 17 C 4 16.446 4.446 16 5 16 z M 41 16 L 43 16 C 43.554 16 44 16.446 44 17 L 44 19 C 44 19.554 43.554 20 43 20 L 41 20 C 40.446 20 40 19.554 40 19 L 40 17 C 40 16.446 40.446 16 41 16 z M 5 22 L 7 22 C 7.554 22 8 22.446 8 23 L 8 25 C 8 25.554 7.554 26 7 26 L 5 26 C 4.446 26 4 25.554 4 25 L 4 23 C 4 22.446 4.446 22 5 22 z M 41 22 L 43 22 C 43.554 22 44 22.446 44 23 L 44 25 C 44 25.554 43.554 26 43 26 L 41 26 C 40.446 26 40 25.554 40 25 L 40 23 C 40 22.446 40.446 22 41 22 z M 5 28 L 7 28 C 7.554 28 8 28.446 8 29 L 8 31 C 8 31.554 7.554 32 7 32 L 5 32 C 4.446 32 4 31.554 4 31 L 4 29 C 4 28.446 4.446 28 5 28 z M 41 28 L 43 28 C 43.554 28 44 28.446 44 29 L 44 31 C 44 31.554 43.554 32 43 32 L 41 32 C 40.446 32 40 31.554 40 31 L 40 29 C 40 28.446 40.446 28 41 28 z M 5 34 L 7 34 C 7.554 34 8 34.446 8 35 L 8 37 C 8 37.554 7.554 38 7 38 L 5 38 C 4.446 38 4 37.554 4 37 L 4 35 C 4 34.446 4.446 34 5 34 z M 41 34 L 43 34 C 43.554 34 44 34.446 44 35 L 44 37 C 44 37.554 43.554 38 43 38 L 41 38 C 40.446 38 40 37.554 40 37 L 40 35 C 40 34.446 40.446 34 41 34 z "
       transform="translate(0,-32)"
       id="rect4142-6" />
    <path
       style="color:#000000;clip-rule:nonzero;display:inline;overflow:visible;visibility:visible;opacity:1;isolation:auto;mix-blend-mode:normal;color-interpolation:sRGB;color-interpolation-filters:linearRGB;solid-color:#000000;solid-opacity:1;fill:#1a237e;fill-opacity:1;fill-rule:evenodd;stroke:none;stroke-width:2;stroke-linecap:round;stroke-linejoin:round;stroke-miterlimit:4;stroke-dasharray:none;stroke-dashoffset:0;stroke-opacity:1;paint-order:normal;color-rendering:auto;image-rendering:auto;shape-rendering:auto;text-rendering:auto;enable-background:accumulate"
       d="M 4 8 C 2.892 8 2 8.892 2 10 L 2 38 C 2 39.108 2.892 40 4 40 L 10 40 L 10 8 L 4 8 z M 5 10 L 7 10 C 7.554 10 8 10.446 8 11 L 8 13 C 8 13.554 7.554 14 7 14 L 5 14 C 4.446 14 4 13.554 4 13 L 4 11 C 4 10.446 4.446 10 5 10 z M 5 16 L 7 16 C 7.554 16 8 16.446 8 17 L 8 19 C 8 19.554 7.554 20 7 20 L 5 20 C 4.446 20 4 19.554 4 19 L 4 17 C 4 16.446 4.446 16 5 16 z M 5 22 L 7 22 C 7.554 22 8 22.446 8 23 L 8 25 C 8 25.554 7.554 26 7 26 L 5 26 C 4.446 26 4 25.554 4 25 L 4 23 C 4 22.446 4.446 22 5 22 z M 5 28 L 7 28 C 7.554 28 8 28.446 8 29 L 8 31 C 8 31.554 7.554 32 7 32 L 5 32 C 4.446 32 4 31.554 4 31 L 4 29 C 4 28.446 4.446 28 5 28 z M 5 34 L 7 34 C 7.554 34 8 34.446 8 35 L 8 37 C 8 37.554 7.554 38 7 38 L 5 38 C 4.446 38 4 37.554 4 37 L 4 35 C 4 34.446 4.446 34 5 34 z "
       transform="translate(0,-32)"
       id="rect4590" />
    <path
       inkscape:connector-curvature="0"
       style="color:#000000;clip-rule:nonzero;display:inline;overflow:visible;visibility:visible;opacity:1;isolation:auto;mix-blend-mode:normal;color-interpolation:sRGB;color-interpolation-filters:linearRGB;solid-color:#000000;solid-opacity:1;fill:#1a237e;fill-opacity:1;fill-rule:evenodd;stroke:none;stroke-width:2;stroke-linecap:round;stroke-linejoin:round;stroke-miterlimit:4;stroke-dasharray:none;stroke-dashoffset:0;stroke-opacity:1;paint-order:normal;color-rendering:auto;image-rendering:auto;shape-rendering:auto;text-rendering:auto;enable-background:accumulate"
       d="m 44,8 c 1.108,0 2,-0.892 2,-2 v -28 c 0,-1.108 -0.892,-2 -2,-2 H 38 V 8 Z M 43,6 H 41 C 40.446,6 40,5.554 40,5 V 3 c 0,-0.554 0.446,-1 1,-1 h 2 c 0.554,0 1,0.446 1,1 v 2 c 0,0.554 -0.446,1 -1,1 z m 0,-6 h -2 c -0.554,0 -1,-0.446 -1,-1 v -2 c 0,-0.554 0.446,-1 1,-1 h 2 c 0.554,0 1,0.446 1,1 v 2 c 0,0.554 -0.446,1 -1,1 z m 0,-6 h -2 c -0.554,0 -1,-0.446 -1,-1 v -2 c 0,-0.554 0.446,-1 1,-1 h 2 c 0.554,0 1,0.446 1,1 v 2 c 0,0.554 -0.446,1 -1,1 z m 0,-6 h -2 c -0.554,0 -1,-0.446 -1,-1 v -2 c 0,-0.554 0.446,-1 1,-1 h 2 c 0.554,0 1,0.446 1,1 v 2 c 0,0.554 -0.446,1 -1,1 z m 0,-6 -2,0 c -0.554,0 -1,-0.446 -1,-1 v -2 c 0,-0.554 0.446,-1 1,-1 h 2 c 0.554,0 1,0.446 1,1 v 2 c 0,0.554 -0.446,1 -1,1 z"
       id="rect4590-7" />
    <path
       style="fill:#e8eaf6;fill-opacity:1;fill-rule:evenodd;stroke:#e8eaf6;stroke-width:2;stroke-linecap:round;stroke-linejoin:round;stroke-miterlimit:4;stroke-dasharray:none;stroke-opacity:1"
       d="M 19,-15 V -1 L 31,-8 Z"
       id="path4635"
       inkscape:connector-curvature="0"
       sodipodi:nodetypes="cccc" />
  </g>
</svg>
